X: 6505
T: Cat That Ate The Candle, The
R: reel
M: 4/4
K: Dmixolydian
FG|"D"A2 GB ADDE|"D"FGAB "C"c2 dB|"D"A2GB AGAB|"C"cAGE "D"FEFG|
"D"A2GB ADDE|"D"FGAB "C"cA"G"dB|"D"A2GB A3B|"Am7"cAGE "D"D2:|
FG|"D"Adde "D"fedf|"C"edce "D"dcAG|"D"Adde fefg|"D"af "C"ge "D"fd "Am"ec|
"D"Adde fedf|"C"edce "D"dcAG|"D"Adde "D"f3g|"D"af "C"ge "D"fd:|

